dist/icons/lang/usa.svg

<svg width="50" height="30" viewBox="0 0 50 30" fill="none" xmlns="http://www.w3.org/2000/svg">
<mask id="mask0_29_2163" style="mask-type:luminance" maskUnits="userSpaceOnUse" x="0" y="0" width="50" height="30">
<path d="M50 0H0V30H50V0Z" fill="white"/>
</mask>
<g mask="url(#mask0_29_2163)">
<path d="M50 27.6902H0V29.997H50V27.6902Z" fill="#CB001C"/>
<path d="M50 25.3835H0V27.6903H50V25.3835Z" fill="white"/>
<path d="M50 23.0796H0V25.3835H50V23.0796Z" fill="#CB001C"/>
<path d="M50 20.77H0V23.0797H50V20.77Z" fill="white"/>
<path d="M50 18.4602H0V20.767H50V18.4602Z" fill="#CB001C"/>
<path d="M50 16.1533H0V18.4601H50V16.1533Z" fill="white"/>
<path d="M50 13.8438H0V16.1535H50V13.8438Z" fill="#CB001C"/>
<path d="M50 11.5398H0V13.8437H50V11.5398Z" fill="white"/>
<path d="M50 9.23291H0V11.5397H50V9.23291Z" fill="#CB001C"/>
<path d="M50 6.92627H0V9.23307H50V6.92627Z" fill="white"/>
<path d="M50 4.61353H0V6.92323H50V4.61353Z" fill="#CB001C"/>
<path d="M50 2.30981H0V4.6137H50V2.30981Z" fill="white"/>
<path d="M50 0H0V2.30971H50V0Z" fill="#CB001C"/>
<path d="M22.8338 0H0V16.1534H22.8338V0Z" fill="#2A3560"/>
<path d="M2.06403 1.77954L2.25658 2.3941H2.88236L2.3755 2.76983L2.56805 3.38148L2.06403 3.00575L1.55718 3.38148L1.75539 2.76983L1.24854 2.3941H1.86865L2.06403 1.77954Z" fill="white"/>
<path d="M2.06403 4.47681L2.25658 5.08846H2.88236L2.3755 5.46419L2.56805 6.07584L2.06403 5.69719L1.55718 6.07584L1.75539 5.46419L1.24854 5.08846H1.86865L2.06403 4.47681Z" fill="white"/>
<path d="M2.06403 7.17676L2.25658 7.78258H2.88236L2.3755 8.16122L2.56805 8.77287L2.06403 8.39423L1.55718 8.77287L1.75539 8.16122L1.24854 7.78258H1.86865L2.06403 7.17676Z" fill="white"/>
<path d="M2.06403 9.87085L2.25658 10.4796H2.88236L2.3755 10.8582L2.56805 11.467L2.06403 11.0912L1.55718 11.467L1.75539 10.8582L1.24854 10.4796H1.86865L2.06403 9.87085Z" fill="white"/>
<path d="M2.06403 12.5649L2.25658 13.1795H2.88236L2.3755 13.5552L2.56805 14.164L2.06403 13.7882L1.55718 14.164L1.75539 13.5552L1.24854 13.1795H1.86865L2.06403 12.5649Z" fill="white"/>
<path d="M3.89059 3.20093L4.07464 3.81258H4.70609L4.20207 4.19122L4.39178 4.79996L3.89059 4.42423L3.38657 4.79996L3.57629 4.19122L3.07227 3.81258H3.69804L3.89059 3.20093Z" fill="white"/>
<path d="M3.89059 5.89795L4.07464 6.50669H4.70609L4.20207 6.88533L4.39178 7.49407L3.89059 7.12416L3.38657 7.49407L3.57629 6.88533L3.07227 6.50669H3.69804L3.89059 5.89795Z" fill="white"/>
<path d="M3.89059 8.59521L4.07464 9.20687H4.70609L4.20207 9.58259L4.39178 10.1913L3.89059 9.8156L3.38657 10.1913L3.57629 9.58259L3.07227 9.20687H3.69804L3.89059 8.59521Z" fill="white"/>
<path d="M3.89059 11.2952L4.07464 11.9039H4.70609L4.20207 12.2796L4.39178 12.8855L3.89059 12.5097L3.38657 12.8855L3.57629 12.2796L3.07227 11.9039H3.69804L3.89059 11.2952Z" fill="white"/>
<path d="M5.73395 1.77954L5.92933 2.3941H6.55511L6.04826 2.76983L6.24364 3.38148L5.73395 3.00575L5.23276 3.38148L5.42531 2.76983L4.91846 2.3941H5.5414L5.73395 1.77954Z" fill="white"/>
<path d="M5.73395 4.47681L5.92933 5.08846H6.55511L6.04826 5.46419L6.24364 6.07584L5.73395 5.69719L5.23276 6.07584L5.42531 5.46419L4.91846 5.08846H5.5414L5.73395 4.47681Z" fill="white"/>
<path d="M5.73395 7.17676L5.92933 7.78258H6.55511L6.04826 8.16122L6.24364 8.77287L5.73395 8.39423L5.23276 8.77287L5.42531 8.16122L4.91846 7.78258H5.5414L5.73395 7.17676Z" fill="white"/>
<path d="M5.73395 9.87085L5.92933 10.4796H6.55511L6.04826 10.8582L6.24364 11.467L5.73395 11.0912L5.23276 11.467L5.42531 10.8582L4.91846 10.4796H5.5414L5.73395 9.87085Z" fill="white"/>
<path d="M5.73395 12.5649L5.92933 13.1795H6.55511L6.04826 13.5552L6.24364 14.164L5.73395 13.7882L5.23276 14.164L5.42531 13.5552L4.91846 13.1795H5.5414L5.73395 12.5649Z" fill="white"/>
<path d="M7.56295 3.20093L7.75267 3.81258H8.38128L7.8716 4.19122L8.06698 4.79996L7.56295 4.42423L7.05893 4.79996L7.25431 4.19122L6.74463 3.81258H7.37041L7.56295 3.20093Z" fill="white"/>
<path d="M7.56295 5.89795L7.75267 6.50669H8.38128L7.8716 6.88533L8.06698 7.49407L7.56295 7.12416L7.05893 7.49407L7.25431 6.88533L6.74463 6.50669H7.37041L7.56295 5.89795Z" fill="white"/>
<path d="M7.56295 8.59521L7.75267 9.20687H8.38128L7.8716 9.58259L8.06698 10.1913L7.56295 9.8156L7.05893 10.1913L7.25431 9.58259L6.74463 9.20687H7.37041L7.56295 8.59521Z" fill="white"/>
<path d="M7.56295 11.2952L7.75267 11.9039H8.38128L7.8716 12.2796L8.06698 12.8855L7.56295 12.5097L7.05893 12.8855L7.25431 12.2796L6.74463 11.9039H7.37041L7.56295 11.2952Z" fill="white"/>
<path d="M9.41217 1.77954L9.60755 2.3941H10.2277L9.72082 2.76983L9.92186 3.38148L9.41217 3.00575L8.90532 3.38148L9.09787 2.76983L8.59668 2.3941H9.21963L9.41217 1.77954Z" fill="white"/>
<path d="M9.41217 4.47681L9.60755 5.08846H10.2277L9.72082 5.46419L9.92186 6.07584L9.41217 5.69719L8.90532 6.07584L9.09787 5.46419L8.59668 5.08846H9.21963L9.41217 4.47681Z" fill="white"/>
<path d="M9.41217 7.17676L9.60755 7.78258H10.2277L9.72082 8.16122L9.92186 8.77287L9.41217 8.39423L8.90532 8.77287L9.09787 8.16122L8.59668 7.78258H9.21963L9.41217 7.17676Z" fill="white"/>
<path d="M9.41217 9.87085L9.60755 10.4796H10.2277L9.72082 10.8582L9.92186 11.467L9.41217 11.0912L8.90532 11.467L9.09787 10.8582L8.59668 10.4796H9.21963L9.41217 9.87085Z" fill="white"/>
<path d="M9.41217 12.5649L9.60755 13.1795H10.2277L9.72082 13.5552L9.92186 14.164L9.41217 13.7882L8.90532 14.164L9.09787 13.5552L8.59668 13.1795H9.21963L9.41217 12.5649Z" fill="white"/>
<path d="M11.2387 3.20093L11.4313 3.81258H12.0542L11.5502 4.19122L11.7399 4.79996L11.2387 4.42423L10.7347 4.79996L10.9244 4.19122L10.4204 3.81258H11.0434L11.2387 3.20093Z" fill="white"/>
<path d="M11.2387 5.89795L11.4313 6.50669H12.0542L11.5502 6.88533L11.7399 7.49407L11.2387 7.12416L10.7347 7.49407L10.9244 6.88533L10.4204 6.50669H11.0434L11.2387 5.89795Z" fill="white"/>
<path d="M11.2387 8.59521L11.4313 9.20687H12.0542L11.5502 9.58259L11.7399 10.1913L11.2387 9.8156L10.7347 10.1913L10.9244 9.58259L10.4204 9.20687H11.0434L11.2387 8.59521Z" fill="white"/>
<path d="M11.2387 11.2952L11.4313 11.9039H12.0542L11.5502 12.2796L11.7399 12.8855L11.2387 12.5097L10.7347 12.8855L10.9244 12.2796L10.4204 11.9039H11.0434L11.2387 11.2952Z" fill="white"/>
<path d="M13.0845 1.77954L13.2771 2.3941H13.9L13.3988 2.76983L13.5942 3.38148L13.0845 3.00575L12.5833 3.38148L12.7731 2.76983L12.269 2.3941H12.892L13.0845 1.77954Z" fill="white"/>
<path d="M13.0845 4.47681L13.2771 5.08846H13.9L13.3988 5.46419L13.5942 6.07584L13.0845 5.69719L12.5833 6.07584L12.7731 5.46419L12.269 5.08846H12.892L13.0845 4.47681Z" fill="white"/>
<path d="M13.0845 7.17676L13.2771 7.78258H13.9L13.3988 8.16122L13.5942 8.77287L13.0845 8.39423L12.5833 8.77287L12.7731 8.16122L12.269 7.78258H12.892L13.0845 7.17676Z" fill="white"/>
<path d="M13.0845 9.87085L13.2771 10.4796H13.9L13.3988 10.8582L13.5942 11.467L13.0845 11.0912L12.5833 11.467L12.7731 10.8582L12.269 10.4796H12.892L13.0845 9.87085Z" fill="white"/>
<path d="M13.0845 12.5649L13.2771 13.1795H13.9L13.3988 13.5552L13.5942 14.164L13.0845 13.7882L12.5833 14.164L12.7731 13.5552L12.269 13.1795H12.892L13.0845 12.5649Z" fill="white"/>
<path d="M14.9112 3.20093L15.1037 3.81258H15.7324L15.2255 4.19122L15.4181 4.79996L14.9112 4.42423L14.4072 4.79996L14.6026 4.19122L14.0957 3.81258H14.7215L14.9112 3.20093Z" fill="white"/>
<path d="M14.9112 5.89795L15.1037 6.50669H15.7324L15.2255 6.88533L15.4181 7.49407L14.9112 7.12416L14.4072 7.49407L14.6026 6.88533L14.0957 6.50669H14.7215L14.9112 5.89795Z" fill="white"/>
<path d="M14.9112 8.59521L15.1037 9.20687H15.7324L15.2255 9.58259L15.4181 10.1913L14.9112 9.8156L14.4072 10.1913L14.6026 9.58259L14.0957 9.20687H14.7215L14.9112 8.59521Z" fill="white"/>
<path d="M14.9112 11.2952L15.1037 11.9039H15.7324L15.2255 12.2796L15.4181 12.8855L14.9112 12.5097L14.4072 12.8855L14.6026 12.2796L14.0957 11.9039H14.7215L14.9112 11.2952Z" fill="white"/>
<path d="M16.7603 1.77954L16.9557 2.3941H17.5786L17.0746 2.76983L17.2643 3.38148L16.7603 3.00575L16.262 3.38148L16.4488 2.76983L15.9448 2.3941H16.5678L16.7603 1.77954Z" fill="white"/>
<path d="M16.7603 4.47681L16.9557 5.08846H17.5786L17.0746 5.46419L17.2643 6.07584L16.7603 5.69719L16.262 6.07584L16.4488 5.46419L15.9448 5.08846H16.5678L16.7603 4.47681Z" fill="white"/>
<path d="M16.7603 7.17676L16.9557 7.78258H17.5786L17.0746 8.16122L17.2643 8.77287L16.7603 8.39423L16.262 8.77287L16.4488 8.16122L15.9448 7.78258H16.5678L16.7603 7.17676Z" fill="white"/>
<path d="M16.7603 9.87085L16.9557 10.4796H17.5786L17.0746 10.8582L17.2643 11.467L16.7603 11.0912L16.262 11.467L16.4488 10.8582L15.9448 10.4796H16.5678L16.7603 9.87085Z" fill="white"/>
<path d="M16.7603 12.5649L16.9557 13.1795H17.5786L17.0746 13.5552L17.2643 14.164L16.7603 13.7882L16.262 14.164L16.4488 13.5552L15.9448 13.1795H16.5678L16.7603 12.5649Z" fill="white"/>
<path d="M18.5894 3.20093L18.7763 3.81258H19.4021L18.9037 4.19122L19.0878 4.79996L18.5894 4.42423L18.0797 4.79996L18.2751 4.19122L17.7739 3.81258H18.394L18.5894 3.20093Z" fill="white"/>
<path d="M18.5894 5.89795L18.7763 6.50669H19.4021L18.9037 6.88533L19.0878 7.49407L18.5894 7.12416L18.0797 7.49407L18.2751 6.88533L17.7739 6.50669H18.394L18.5894 5.89795Z" fill="white"/>
<path d="M18.5894 8.59521L18.7763 9.20687H19.4021L18.9037 9.58259L19.0878 10.1913L18.5894 9.8156L18.0797 10.1913L18.2751 9.58259L17.7739 9.20687H18.394L18.5894 8.59521Z" fill="white"/>
<path d="M18.5894 11.2952L18.7763 11.9039H19.4021L18.9037 12.2796L19.0878 12.8855L18.5894 12.5097L18.0797 12.8855L18.2751 12.2796L17.7739 11.9039H18.394L18.5894 11.2952Z" fill="white"/>
<path d="M20.4327 1.77954L20.6309 2.3941H21.251L20.747 2.76983L20.9424 3.38148L20.4327 3.00575L19.9315 3.38148L20.1212 2.76983L19.6172 2.3941H20.2401L20.4327 1.77954Z" fill="white"/>
<path d="M20.4327 4.47681L20.6309 5.08846H21.251L20.747 5.46419L20.9424 6.07584L20.4327 5.69719L19.9315 6.07584L20.1212 5.46419L19.6172 5.08846H20.2401L20.4327 4.47681Z" fill="white"/>
<path d="M20.4327 7.17676L20.6309 7.78258H21.251L20.747 8.16122L20.9424 8.77287L20.4327 8.39423L19.9315 8.77287L20.1212 8.16122L19.6172 7.78258H20.2401L20.4327 7.17676Z" fill="white"/>
<path d="M20.4327 9.87085L20.6309 10.4796H21.251L20.747 10.8582L20.9424 11.467L20.4327 11.0912L19.9315 11.467L20.1212 10.8582L19.6172 10.4796H20.2401L20.4327 9.87085Z" fill="white"/>
<path d="M20.4327 12.5649L20.6309 13.1795H21.251L20.747 13.5552L20.9424 14.164L20.4327 13.7882L19.9315 14.164L20.1212 13.5552L19.6172 13.1795H20.2401L20.4327 12.5649Z" fill="white"/>
</g>
</svg>

<svg width="50" height="30" fill="none" xmlns="http://www.w3.org/2000/svg"><mask id="a" style="mask-type:luminance" maskUnits="userSpaceOnUse" x="0" y="0" width="50" height="30"><path d="M50 0H0v30h50V0z" fill="#fff"/></mask><g mask="url(#a)"><path d="M50 27.69H0v2.307h50V27.69z" fill="#CB001C"/><path d="M50 25.384H0v2.306h50v-2.306z" fill="#fff"/><path d="M50 23.08H0v2.304h50V23.08z" fill="#CB001C"/><path d="M50 20.77H0v2.31h50v-2.31z" fill="#fff"/><path d="M50 18.46H0v2.307h50V18.46z" fill="#CB001C"/><path d="M50 16.153H0v2.307h50v-2.307z" fill="#fff"/><path d="M50 13.844H0v2.31h50v-2.31z" fill="#CB001C"/><path d="M50 11.54H0v2.304h50V11.54z" fill="#fff"/><path d="M50 9.233H0v2.307h50V9.233z" fill="#CB001C"/><path d="M50 6.926H0v2.307h50V6.926z" fill="#fff"/><path d="M50 4.614H0v2.31h50v-2.31z" fill="#CB001C"/><path d="M50 2.31H0v2.304h50V2.31z" fill="#fff"/><path d="M50 0H0v2.31h50V0z" fill="#CB001C"/><path d="M22.834 0H0v16.153h22.834V0z" fill="#2A3560"/><path d="M2.064 1.78l.193.614h.625l-.506.376.192.611-.504-.375-.507.375.198-.611-.506-.376h.62l.195-.614zm0 2.697l.193.611h.625l-.506.376.192.612-.504-.379-.507.379.198-.612-.506-.376h.62l.195-.611zm0 2.7l.193.606h.625l-.506.378.192.612-.504-.379-.507.379.198-.612-.506-.378h.62l.195-.606zm0 2.693l.193.61h.625l-.506.378.192.609-.504-.376-.507.376.198-.609-.506-.378h.62l.195-.61zm0 2.695l.193.615h.625l-.506.375.192.609-.504-.376-.507.376.198-.609-.506-.375h.62l.195-.615zM3.89 3.2l.185.613h.631l-.504.378.19.609-.501-.376-.504.376.19-.609-.505-.378h.626l.193-.612zm0 2.698l.185.609h.631l-.504.378.19.61-.501-.37-.504.37.19-.61-.505-.378h.626l.193-.609zm0 2.697l.185.612h.631l-.504.376.19.608-.501-.375-.504.375.19-.608-.505-.376h.626l.193-.612zm0 2.7l.185.609h.631l-.504.376.19.606-.501-.376-.504.376.19-.606-.505-.376h.626l.193-.609zM5.734 1.78l.195.614h.626l-.507.376.196.611-.51-.375-.501.375.192-.611-.507-.376h.623l.193-.614zm0 2.697l.195.611h.626l-.507.376.196.612-.51-.379-.501.379.192-.612-.507-.376h.623l.193-.611zm0 2.7l.195.606h.626l-.507.378.196.612-.51-.379-.501.379.192-.612-.507-.378h.623l.193-.606zm0 2.693l.195.61h.626l-.507.378.196.609-.51-.376-.501.376.192-.609-.507-.378h.623l.193-.61zm0 2.695l.195.615h.626l-.507.375.196.609-.51-.376-.501.376.192-.609-.507-.375h.623l.193-.615zM7.563 3.2l.19.613h.628l-.51.378.196.609-.504-.376-.504.376.195-.609-.51-.378h.626l.193-.612zm0 2.698l.19.609h.628l-.51.378.196.61-.504-.37-.504.37.195-.61-.51-.378h.626l.193-.609zm0 2.697l.19.612h.628l-.51.376.196.608-.504-.375-.504.375.195-.608-.51-.376h.626l.193-.612zm0 2.7l.19.609h.628l-.51.376.196.606-.504-.376-.504.376.195-.606-.51-.376h.626l.193-.609zM9.412 1.78l.196.614h.62l-.507.376.2.611-.509-.375-.507.375.193-.611-.501-.376h.623l.192-.614zm0 2.697l.196.611h.62l-.507.376.2.612-.509-.379-.507.379.193-.612-.501-.376h.623l.192-.611zm0 2.7l.196.606h.62l-.507.378.2.612-.509-.379-.507.379.193-.612-.501-.378h.623l.192-.606zm0 2.693l.196.61h.62l-.507.378.2.609-.509-.376-.507.376.193-.609-.501-.378h.623l.192-.61zm0 2.695l.196.615h.62l-.507.375.2.609-.509-.376-.507.376.193-.609-.501-.375h.623l.192-.615zM11.239 3.2l.192.613h.623l-.504.378.19.609-.501-.376-.504.376.19-.609-.505-.378h.623l.196-.612zm0 2.698l.192.609h.623l-.504.378.19.61-.501-.37-.504.37.19-.61-.505-.378h.623l.196-.609zm0 2.697l.192.612h.623l-.504.376.19.608-.501-.375-.504.375.19-.608-.505-.376h.623l.196-.612zm0 2.7l.192.609h.623l-.504.376.19.606-.501-.376-.504.376.19-.606-.505-.376h.623l.196-.609zm1.846-9.515l.192.614h.623l-.501.376.195.611-.51-.375-.5.375.19-.611-.505-.376h.623l.193-.614zm0 2.697l.192.611h.623l-.501.376.195.612-.51-.379-.5.379.19-.612-.505-.376h.623l.193-.611zm0 2.7l.192.606h.623l-.501.378.195.612-.51-.379-.5.379.19-.612-.505-.378h.623l.193-.606zm0 2.693l.192.61h.623l-.501.378.195.609-.51-.376-.5.376.19-.609-.505-.378h.623l.193-.61zm0 2.695l.192.615h.623l-.501.375.195.609-.51-.376-.5.376.19-.609-.505-.375h.623l.193-.615zM14.911 3.2l.193.613h.628l-.506.378.192.609-.507-.376-.504.376.196-.609-.507-.378h.626l.19-.612zm0 2.698l.193.609h.628l-.506.378.192.61-.507-.37-.504.37.196-.61-.507-.378h.626l.19-.609zm0 2.697l.193.612h.628l-.506.376.192.608-.507-.375-.504.375.196-.608-.507-.376h.626l.19-.612zm0 2.7l.193.609h.628l-.506.376.192.606-.507-.376-.504.376.196-.606-.507-.376h.626l.19-.609zM16.76 1.78l.196.614h.623l-.504.376.19.611-.505-.375-.498.375.187-.611-.504-.376h.623l.192-.614zm0 2.697l.196.611h.623l-.504.376.19.612-.505-.379-.498.379.187-.612-.504-.376h.623l.192-.611zm0 2.7l.196.606h.623l-.504.378.19.612-.505-.379-.498.379.187-.612-.504-.378h.623l.192-.606zm0 2.693l.196.61h.623l-.504.378.19.609-.505-.376-.498.376.187-.609-.504-.378h.623l.192-.61zm0 2.695l.196.615h.623l-.504.375.19.609-.505-.376-.498.376.187-.609-.504-.375h.623l.192-.615zM18.59 3.2l.186.613h.626l-.498.378.184.609-.499-.376-.51.376.196-.609-.501-.378h.62l.195-.612zm0 2.698l.186.609h.626l-.498.378.184.61-.499-.37-.51.37.196-.61-.501-.378h.62l.195-.609zm0 2.697l.186.612h.626l-.498.376.184.608-.499-.375-.51.375.196-.608-.501-.376h.62l.195-.612zm0 2.7l.186.609h.626l-.498.376.184.606-.499-.376-.51.376.196-.606-.501-.376h.62l.195-.609zm1.843-9.515l.198.614h.62l-.504.376.195.611-.51-.375-.5.375.19-.611-.505-.376h.623l.193-.614zm0 2.697l.198.611h.62l-.504.376.195.612-.51-.379-.5.379.19-.612-.505-.376h.623l.193-.611zm0 2.7l.198.606h.62l-.504.378.195.612-.51-.379-.5.379.19-.612-.505-.378h.623l.193-.606zm0 2.693l.198.61h.62l-.504.378.195.609-.51-.376-.5.376.19-.609-.505-.378h.623l.193-.61zm0 2.695l.198.615h.62l-.504.375.195.609-.51-.376-.5.376.19-.609-.505-.375h.623l.193-.615z" fill="#fff"/></g></svg>
